documentation/public/assets/images/input-10-do-and-dont-03.svg

<svg width="294" height="96" viewBox="0 0 294 96" fill="none" xmlns="http://www.w3.org/2000/svg">
<rect x="1" y="29" width="292" height="39" rx="3.5" fill="white"/>
<path d="M13.9091 54.5V42.8636H20.9318V44.1136H15.3182V48.0455H20.5682V49.2955H15.3182V53.25H21.0227V54.5H13.9091ZM24.267 54.5909C23.9867 54.5909 23.7462 54.4905 23.5455 54.2898C23.3447 54.089 23.2443 53.8485 23.2443 53.5682C23.2443 53.2879 23.3447 53.0473 23.5455 52.8466C23.7462 52.6458 23.9867 52.5455 24.267 52.5455C24.5473 52.5455 24.7879 52.6458 24.9886 52.8466C25.1894 53.0473 25.2898 53.2879 25.2898 53.5682C25.2898 53.7538 25.2424 53.9242 25.1477 54.0795C25.0568 54.2348 24.9337 54.3598 24.7784 54.4545C24.6269 54.5455 24.4564 54.5909 24.267 54.5909ZM31.2188 57.9545C30.571 57.9545 30.0142 57.8712 29.5483 57.7045C29.0824 57.5417 28.6941 57.3258 28.3835 57.0568C28.0767 56.7917 27.8324 56.5076 27.6506 56.2045L28.7188 55.4545C28.84 55.6136 28.9934 55.7955 29.179 56C29.3646 56.2083 29.6184 56.3883 29.9403 56.5398C30.2661 56.6951 30.6922 56.7727 31.2188 56.7727C31.9233 56.7727 32.5047 56.6023 32.9631 56.2614C33.4214 55.9205 33.6506 55.3864 33.6506 54.6591V52.8864H33.5369C33.4384 53.0455 33.2983 53.2424 33.1165 53.4773C32.9384 53.7083 32.6809 53.9148 32.3438 54.0966C32.0104 54.2746 31.5597 54.3636 30.9915 54.3636C30.2869 54.3636 29.6544 54.197 29.0938 53.8636C28.5369 53.5303 28.0956 53.0455 27.7699 52.4091C27.4479 51.7727 27.2869 51 27.2869 50.0909C27.2869 49.197 27.4441 48.4186 27.7585 47.7557C28.0729 47.089 28.5104 46.5739 29.071 46.2102C29.6316 45.8428 30.2794 45.6591 31.0142 45.6591C31.5824 45.6591 32.0331 45.7538 32.3665 45.9432C32.7036 46.1288 32.9612 46.3409 33.1392 46.5795C33.321 46.8144 33.4612 47.0076 33.5597 47.1591H33.696V45.7727H34.9915V54.75C34.9915 55.5 34.821 56.1098 34.4801 56.5795C34.143 57.053 33.6884 57.3996 33.1165 57.6193C32.5483 57.8428 31.9157 57.9545 31.2188 57.9545ZM31.1733 53.1591C31.7112 53.1591 32.1657 53.036 32.5369 52.7898C32.9081 52.5436 33.1903 52.1894 33.3835 51.7273C33.5767 51.2652 33.6733 50.7121 33.6733 50.0682C33.6733 49.4394 33.5786 48.8845 33.3892 48.4034C33.1998 47.9223 32.9195 47.5455 32.5483 47.2727C32.1771 47 31.7188 46.8636 31.1733 46.8636C30.6051 46.8636 30.1316 47.0076 29.7528 47.2955C29.3778 47.5833 29.0956 47.9697 28.9062 48.4545C28.7206 48.9394 28.6278 49.4773 28.6278 50.0682C28.6278 50.6742 28.7225 51.2102 28.9119 51.6761C29.1051 52.1383 29.3892 52.5019 29.7642 52.767C30.143 53.0284 30.6127 53.1591 31.1733 53.1591ZM38.4233 54.5909C38.143 54.5909 37.9025 54.4905 37.7017 54.2898C37.5009 54.089 37.4006 53.8485 37.4006 53.5682C37.4006 53.2879 37.5009 53.0473 37.7017 52.8466C37.9025 52.6458 38.143 52.5455 38.4233 52.5455C38.7036 52.5455 38.9441 52.6458 39.1449 52.8466C39.3456 53.0473 39.446 53.2879 39.446 53.5682C39.446 53.7538 39.3987 53.9242 39.304 54.0795C39.2131 54.2348 39.09 54.3598 38.9347 54.4545C38.7831 54.5455 38.6127 54.5909 38.4233 54.5909ZM50.9886 42.8636H52.3977V51.1818C52.3977 51.9242 52.2614 52.5549 51.9886 53.0739C51.7159 53.5928 51.3314 53.9867 50.8352 54.2557C50.339 54.5246 49.7538 54.6591 49.0795 54.6591C48.4432 54.6591 47.8769 54.5436 47.3807 54.3125C46.8845 54.0777 46.4943 53.7443 46.2102 53.3125C45.9261 52.8807 45.7841 52.3674 45.7841 51.7727H47.1705C47.1705 52.1023 47.2519 52.3902 47.4148 52.6364C47.5814 52.8788 47.8087 53.0682 48.0966 53.2045C48.3845 53.3409 48.7121 53.4091 49.0795 53.4091C49.4848 53.4091 49.8295 53.3239 50.1136 53.1534C50.3977 52.983 50.6136 52.733 50.7614 52.4034C50.9129 52.0701 50.9886 51.6629 50.9886 51.1818V42.8636ZM60.5398 50.9318V45.7727H61.8807V54.5H60.5398V53.0227H60.4489C60.2443 53.4659 59.9261 53.8428 59.4943 54.1534C59.0625 54.4602 58.517 54.6136 57.858 54.6136C57.3125 54.6136 56.8277 54.4943 56.4034 54.2557C55.9792 54.0133 55.6458 53.6496 55.4034 53.1648C55.161 52.6761 55.0398 52.0606 55.0398 51.3182V45.7727H56.3807V51.2273C56.3807 51.8636 56.5587 52.3712 56.9148 52.75C57.2746 53.1288 57.733 53.3182 58.2898 53.3182C58.6231 53.3182 58.9621 53.233 59.3068 53.0625C59.6553 52.892 59.947 52.6307 60.1818 52.2784C60.4205 51.9261 60.5398 51.4773 60.5398 50.9318ZM65.6776 42.8636V54.5H64.3366V42.8636H65.6776ZM71.7926 54.6818C70.9517 54.6818 70.2263 54.4962 69.6165 54.125C69.0104 53.75 68.5426 53.2273 68.2131 52.5568C67.8873 51.8826 67.7244 51.0985 67.7244 50.2045C67.7244 49.3106 67.8873 48.5227 68.2131 47.8409C68.5426 47.1553 69.0009 46.6212 69.5881 46.2386C70.179 45.8523 70.8684 45.6591 71.6562 45.6591C72.1108 45.6591 72.5597 45.7348 73.0028 45.8864C73.446 46.0379 73.8494 46.2841 74.2131 46.625C74.5767 46.9621 74.8665 47.4091 75.0824 47.9659C75.2983 48.5227 75.4062 49.2083 75.4062 50.0227V50.5909H68.679V49.4318H74.0426C74.0426 48.9394 73.9441 48.5 73.7472 48.1136C73.554 47.7273 73.2775 47.4223 72.9176 47.1989C72.5616 46.9754 72.1411 46.8636 71.6562 46.8636C71.1222 46.8636 70.66 46.9962 70.2699 47.2614C69.8835 47.5227 69.5862 47.8636 69.3778 48.2841C69.1695 48.7045 69.0653 49.1553 69.0653 49.6364V50.4091C69.0653 51.0682 69.179 51.6269 69.4062 52.0852C69.6373 52.5398 69.9574 52.8864 70.3665 53.125C70.7756 53.3598 71.2509 53.4773 71.7926 53.4773C72.1449 53.4773 72.4631 53.428 72.7472 53.3295C73.035 53.2273 73.2831 53.0758 73.4915 52.875C73.6998 52.6705 73.8608 52.4167 73.9744 52.1136L75.2699 52.4773C75.1335 52.9167 74.9044 53.303 74.5824 53.6364C74.2604 53.9659 73.8627 54.2235 73.3892 54.4091C72.9157 54.5909 72.3835 54.6818 71.7926 54.6818ZM83.6278 47.7273L82.4233 48.0682C82.3475 47.8674 82.2358 47.6723 82.0881 47.483C81.9441 47.2898 81.7472 47.1307 81.4972 47.0057C81.2472 46.8807 80.9271 46.8182 80.5369 46.8182C80.0028 46.8182 79.5578 46.9413 79.2017 47.1875C78.8494 47.4299 78.6733 47.7386 78.6733 48.1136C78.6733 48.447 78.7945 48.7102 79.0369 48.9034C79.2794 49.0966 79.6581 49.2576 80.1733 49.3864L81.4688 49.7045C82.2491 49.8939 82.8305 50.1837 83.2131 50.5739C83.5956 50.9602 83.7869 51.4583 83.7869 52.0682C83.7869 52.5682 83.643 53.0152 83.3551 53.4091C83.071 53.803 82.6733 54.1136 82.1619 54.3409C81.6506 54.5682 81.0559 54.6818 80.3778 54.6818C79.4877 54.6818 78.7509 54.4886 78.1676 54.1023C77.5843 53.7159 77.215 53.1515 77.0597 52.4091L78.3324 52.0909C78.4536 52.5606 78.6828 52.9129 79.0199 53.1477C79.3608 53.3826 79.8059 53.5 80.3551 53.5C80.9801 53.5 81.4763 53.3674 81.8438 53.1023C82.215 52.8333 82.4006 52.5114 82.4006 52.1364C82.4006 51.8333 82.2945 51.5795 82.0824 51.375C81.8703 51.1667 81.5445 51.0114 81.1051 50.9091L79.6506 50.5682C78.8513 50.3788 78.2642 50.0852 77.8892 49.6875C77.518 49.286 77.3324 48.7841 77.3324 48.1818C77.3324 47.6894 77.4706 47.2538 77.7472 46.875C78.0275 46.4962 78.4081 46.1989 78.8892 45.983C79.3741 45.767 79.9233 45.6591 80.5369 45.6591C81.4006 45.6591 82.0786 45.8485 82.571 46.2273C83.0672 46.6061 83.4195 47.1061 83.6278 47.7273Z" fill="#757575"/>
<rect x="1" y="29" width="292" height="39" rx="3.5" stroke="#545454"/>
<path d="M9.87145 6.31818V16.5H8.23082L3.43324 9.56463H3.34872V16.5H1.50426V6.31818H3.15483L7.94744 13.2585H8.03693V6.31818H9.87145ZM13.9991 16.6541C13.5152 16.6541 13.0794 16.5679 12.6916 16.3956C12.3071 16.2199 12.0022 15.9614 11.7768 15.62C11.5547 15.2786 11.4437 14.8577 11.4437 14.3572C11.4437 13.9264 11.5233 13.5701 11.6824 13.2884C11.8414 13.0066 12.0585 12.7812 12.3336 12.6122C12.6087 12.4432 12.9186 12.3156 13.2633 12.2294C13.6113 12.1399 13.9709 12.0753 14.3422 12.0355C14.7896 11.9891 15.1525 11.9477 15.4309 11.9112C15.7093 11.8714 15.9115 11.8118 16.0375 11.7322C16.1667 11.6494 16.2314 11.5218 16.2314 11.3494V11.3196C16.2314 10.9451 16.1203 10.6551 15.8983 10.4496C15.6762 10.2441 15.3564 10.1413 14.9387 10.1413C14.4979 10.1413 14.1483 10.2375 13.8897 10.4297C13.6345 10.6219 13.4622 10.849 13.3727 11.1108L11.6923 10.8722C11.8249 10.4081 12.0436 10.0204 12.3485 9.70881C12.6535 9.39394 13.0263 9.15862 13.4672 9.00284C13.908 8.84375 14.3952 8.7642 14.9288 8.7642C15.2967 8.7642 15.6629 8.80729 16.0275 8.89347C16.3921 8.97964 16.7252 9.12216 17.0268 9.32102C17.3284 9.51657 17.5704 9.78338 17.7527 10.1214C17.9383 10.4595 18.0311 10.8821 18.0311 11.3892V16.5H16.301V15.451H16.2413C16.1319 15.6631 15.9778 15.862 15.7789 16.0476C15.5834 16.2299 15.3365 16.3774 15.0382 16.4901C14.7432 16.5994 14.3968 16.6541 13.9991 16.6541ZM14.4664 15.3317C14.8277 15.3317 15.1409 15.2604 15.4061 15.1179C15.6712 14.9721 15.8751 14.7798 16.0176 14.5412C16.1634 14.3026 16.2363 14.0424 16.2363 13.7607V12.8608C16.18 12.9072 16.0839 12.9503 15.948 12.9901C15.8154 13.0298 15.6663 13.0646 15.5005 13.0945C15.3348 13.1243 15.1708 13.1508 15.0083 13.174C14.8459 13.1972 14.7051 13.2171 14.5858 13.2337C14.3173 13.2701 14.077 13.3298 13.8649 13.4126C13.6528 13.4955 13.4854 13.6115 13.3627 13.7607C13.2401 13.9065 13.1788 14.0954 13.1788 14.3274C13.1788 14.6589 13.2998 14.9091 13.5417 15.0781C13.7837 15.2472 14.0919 15.3317 14.4664 15.3317ZM19.8407 16.5V8.86364H21.5609V10.1612H21.6504C21.8095 9.72372 22.073 9.38234 22.4409 9.13707C22.8088 8.88849 23.2479 8.7642 23.7583 8.7642C24.2754 8.7642 24.7112 8.89015 25.0659 9.14205C25.4238 9.39062 25.6757 9.73035 25.8216 10.1612H25.9011C26.0701 9.73698 26.3552 9.39891 26.7562 9.14702C27.1606 8.89181 27.6395 8.7642 28.193 8.7642C28.8957 8.7642 29.469 8.98627 29.9132 9.4304C30.3573 9.87453 30.5794 10.5225 30.5794 11.3743V16.5H28.7747V11.6527C28.7747 11.1787 28.6487 10.8324 28.3968 10.6136C28.1449 10.3916 27.8367 10.2805 27.4721 10.2805C27.0379 10.2805 26.6982 10.4164 26.4529 10.6882C26.211 10.9567 26.09 11.3063 26.09 11.7372V16.5H24.3251V11.5781C24.3251 11.1837 24.2058 10.8688 23.9672 10.6335C23.7318 10.3982 23.4236 10.2805 23.0424 10.2805C22.7839 10.2805 22.5486 10.3468 22.3365 10.4794C22.1243 10.6087 21.9553 10.7926 21.8294 11.0312C21.7034 11.2666 21.6404 11.5417 21.6404 11.8565V16.5H19.8407ZM35.7859 16.6491C35.0202 16.6491 34.359 16.4901 33.8022 16.1719C33.2487 15.8504 32.8228 15.3963 32.5245 14.8097C32.2262 14.2197 32.0771 13.5253 32.0771 12.7266C32.0771 11.9411 32.2262 11.2517 32.5245 10.6584C32.8261 10.0618 33.247 9.59777 33.7873 9.26633C34.3275 8.93158 34.9622 8.7642 35.6914 8.7642C36.1621 8.7642 36.6062 8.84044 37.0238 8.9929C37.4447 9.14205 37.8159 9.37405 38.1374 9.68892C38.4622 10.0038 38.7174 10.4048 38.9031 10.892C39.0887 11.3759 39.1815 11.9527 39.1815 12.6222V13.174H32.9222V11.9609H37.4563C37.453 11.6162 37.3784 11.3097 37.2326 11.0412C37.0868 10.7694 36.8829 10.5556 36.6211 10.3999C36.3626 10.2441 36.061 10.1662 35.7163 10.1662C35.3484 10.1662 35.0252 10.2557 34.7468 10.4347C34.4684 10.6103 34.2513 10.8423 34.0955 11.1307C33.9431 11.4157 33.8652 11.7289 33.8619 12.0703V13.1293C33.8619 13.5734 33.9431 13.9545 34.1055 14.2727C34.2679 14.5876 34.4949 14.8295 34.7866 14.9986C35.0782 15.1643 35.4196 15.2472 35.8107 15.2472C36.0726 15.2472 36.3095 15.2107 36.5217 15.1378C36.7338 15.0616 36.9177 14.9505 37.0735 14.8047C37.2293 14.6589 37.3469 14.4782 37.4265 14.2628L39.1069 14.4517C39.0008 14.8958 38.7987 15.2836 38.5004 15.6151C38.2054 15.9432 37.8275 16.1984 37.3668 16.3807C36.9061 16.5597 36.3791 16.6491 35.7859 16.6491Z" fill="#333333"/>
</svg>

<svg width="294" height="96" fill="none" xmlns="http://www.w3.org/2000/svg"><rect x="1" y="29" width="292" height="39" rx="3.5" fill="#fff"/><path d="M13.9 54.5V42.86h7.03v1.25h-5.61v3.94h5.25v1.25h-5.25v3.95h5.7v1.25h-7.11Zm10.37.1a.98.98 0 0 1-.72-.31.98.98 0 0 1-.3-.72c0-.28.1-.52.3-.72.2-.2.44-.3.72-.3.28 0 .52.1.72.3.2.2.3.44.3.72a1.06 1.06 0 0 1-.51.89.97.97 0 0 1-.51.13Zm6.95 3.35a4.9 4.9 0 0 1-1.67-.25 3.54 3.54 0 0 1-1.9-1.5l1.07-.75c.12.16.27.35.46.55.18.2.44.39.76.54.33.16.75.23 1.28.23.7 0 1.28-.17 1.74-.5.46-.35.7-.88.7-1.61v-1.77h-.12c-.1.16-.24.35-.42.59-.18.23-.44.43-.78.62-.33.17-.78.26-1.35.26a3.5 3.5 0 0 1-3.22-1.95 5.09 5.09 0 0 1-.48-2.32c0-.9.15-1.67.47-2.33a3.46 3.46 0 0 1 3.26-2.1c.56 0 1.01.1 1.35.28.33.19.6.4.77.64.18.23.32.43.42.58h.14v-1.39H35v8.98c0 .75-.18 1.36-.52 1.83s-.8.82-1.36 1.04c-.57.22-1.2.33-1.9.33Zm-.05-4.8c.54 0 1-.11 1.37-.36.37-.25.65-.6.84-1.06.2-.46.3-1.02.3-1.66 0-.63-.1-1.19-.3-1.67a2.5 2.5 0 0 0-.83-1.13c-.37-.27-.83-.4-1.38-.4a2.28 2.28 0 0 0-2.26 1.58 4.48 4.48 0 0 0-.28 1.62c0 .6.1 1.14.28 1.6.2.47.48.83.85 1.1.38.26.85.39 1.41.39Zm7.25 1.44a.98.98 0 0 1-.72-.3.98.98 0 0 1-.3-.72c0-.28.1-.52.3-.72.2-.2.44-.3.72-.3.28 0 .52.1.72.3.2.2.3.44.3.72a1.06 1.06 0 0 1-.51.89.97.97 0 0 1-.5.13ZM51 42.86h1.4v8.32c0 .74-.13 1.37-.4 1.9-.27.51-.66.9-1.15 1.18-.5.26-1.09.4-1.76.4a4 4 0 0 1-1.7-.35 2.8 2.8 0 0 1-1.17-1 2.74 2.74 0 0 1-.43-1.54h1.39c0 .33.08.62.24.87.17.24.4.43.69.56.28.14.61.2.98.2.4 0 .75-.08 1.03-.25.29-.17.5-.42.65-.75.15-.33.23-.74.23-1.22v-8.32Zm9.55 8.07v-5.16h1.34v8.73h-1.34v-1.48h-.1a2.7 2.7 0 0 1-2.58 1.59c-.55 0-1.03-.12-1.46-.35a2.5 2.5 0 0 1-1-1.1 4.14 4.14 0 0 1-.36-1.84v-5.55h1.34v5.46c0 .63.18 1.14.53 1.52.36.38.82.57 1.38.57a2.28 2.28 0 0 0 2.25-2.39Zm5.14-8.07V54.5h-1.34V42.86h1.34Zm6.11 11.82a3.74 3.74 0 0 1-3.58-2.13 5.35 5.35 0 0 1-.49-2.35c0-.89.17-1.68.5-2.36a3.7 3.7 0 0 1 3.44-2.18c.45 0 .9.07 1.34.23a3.34 3.34 0 0 1 2.08 2.08c.22.55.33 1.24.33 2.05v.57h-6.73v-1.16h5.36c0-.5-.1-.93-.3-1.32a2.23 2.23 0 0 0-2.08-1.25c-.54 0-1 .14-1.39.4-.39.26-.68.6-.9 1.02a3 3 0 0 0-.3 1.36v.77c0 .66.1 1.22.34 1.68.23.45.55.8.96 1.03.4.24.88.36 1.42.36.35 0 .67-.05.96-.15.28-.1.53-.25.74-.45.21-.21.37-.46.48-.77l1.3.37a2.99 2.99 0 0 1-1.89 1.93c-.46.18-1 .27-1.59.27Zm11.84-6.95-1.2.34c-.08-.2-.2-.4-.34-.59a1.6 1.6 0 0 0-.6-.47 2.15 2.15 0 0 0-.95-.2c-.54 0-.98.13-1.34.38-.35.24-.53.55-.53.92 0 .34.12.6.37.8.24.19.62.35 1.13.48l1.3.31c.78.2 1.36.48 1.74.87.39.39.58.89.58 1.5 0 .5-.15.95-.43 1.34-.29.4-.69.7-1.2.93-.5.23-1.1.34-1.78.34-.9 0-1.63-.2-2.21-.58a2.57 2.57 0 0 1-1.11-1.7l1.27-.3c.12.46.35.81.69 1.05.34.23.79.35 1.34.35a2.5 2.5 0 0 0 1.48-.4c.38-.27.56-.59.56-.96 0-.3-.1-.56-.32-.77a2.1 2.1 0 0 0-.97-.46l-1.46-.34a3.47 3.47 0 0 1-1.76-.88c-.37-.4-.56-.9-.56-1.5 0-.5.14-.94.42-1.31.28-.38.66-.68 1.14-.9a4 4 0 0 1 1.65-.32c.86 0 1.54.19 2.03.57.5.38.85.88 1.06 1.5Z" fill="#757575"/><rect x="1" y="29" width="292" height="39" rx="3.5" stroke="#545454"/><path d="M9.87 6.32V16.5H8.23l-4.8-6.94h-.08v6.94H1.5V6.32h1.65l4.8 6.94h.09V6.32h1.83ZM14 16.65c-.48 0-.92-.08-1.3-.25a2.13 2.13 0 0 1-.92-.78 2.27 2.27 0 0 1-.34-1.26c0-.43.08-.79.24-1.07.16-.28.38-.5.65-.68.28-.17.59-.3.93-.38.35-.09.71-.15 1.08-.2l1.1-.12c.27-.04.47-.1.6-.18.13-.08.2-.2.2-.38v-.03c0-.37-.12-.66-.34-.87-.22-.2-.54-.3-.96-.3-.44 0-.8.09-1.05.28-.26.2-.43.42-.52.68l-1.68-.24A2.68 2.68 0 0 1 13.47 9a4.76 4.76 0 0 1 2.56-.1c.36.08.7.22 1 .42.3.2.54.46.72.8.19.34.28.76.28 1.27v5.11H16.3v-1.05h-.06a2.2 2.2 0 0 1-1.2 1.04c-.3.1-.64.16-1.04.16Zm.47-1.32a2 2 0 0 0 .94-.21c.26-.15.47-.34.6-.58.15-.24.23-.5.23-.78v-.9a.85.85 0 0 1-.3.13 13.8 13.8 0 0 1-1.36.24c-.26.04-.5.1-.72.18-.2.09-.37.2-.5.35a.85.85 0 0 0-.18.57c0 .33.12.58.36.75.24.17.55.25.93.25Zm5.37 1.17V8.86h1.72v1.3h.09c.16-.44.42-.78.8-1.02.36-.25.8-.38 1.3-.38.53 0 .96.13 1.32.38.35.25.6.59.75 1.02h.08c.17-.42.46-.76.86-1.01.4-.26.88-.39 1.43-.39.7 0 1.28.23 1.72.67.45.44.67 1.1.67 1.94v5.13h-1.8v-4.85c0-.47-.13-.82-.38-1.04a1.35 1.35 0 0 0-.93-.33c-.43 0-.77.14-1.02.4a1.5 1.5 0 0 0-.36 1.06v4.76h-1.76v-4.92c0-.4-.12-.71-.36-.95a1.25 1.25 0 0 0-.93-.35 1.36 1.36 0 0 0-1.21.75 1.7 1.7 0 0 0-.19.83v4.64h-1.8Zm15.95.15c-.77 0-1.43-.16-1.99-.48a3.23 3.23 0 0 1-1.28-1.36 4.56 4.56 0 0 1-.44-2.08c0-.79.15-1.48.44-2.07a3.38 3.38 0 0 1 3.17-1.9c.47 0 .92.08 1.33.23a3.17 3.17 0 0 1 1.88 1.9c.19.49.28 1.06.28 1.73v.55h-6.26v-1.2h4.54c0-.35-.08-.66-.23-.93a1.63 1.63 0 0 0-.6-.64 1.72 1.72 0 0 0-.91-.23 1.8 1.8 0 0 0-1.62.96 2 2 0 0 0-.24.94v1.06c0 .44.08.82.25 1.14.16.32.38.56.68.73a2.25 2.25 0 0 0 1.73.14 1.55 1.55 0 0 0 .91-.88l1.68.2c-.1.44-.31.82-.61 1.16-.3.32-.67.58-1.13.76-.46.18-1 .27-1.58.27Z" fill="#333"/></svg>
